X:1
T:Title
%%score { ( 1 3 ) | 2 }
L:1/8
Q:1/4=100
M:4/4
K:Eb
V:1 treble nm="Grand Piano"
V:3 treble 
V:2 bass 
V:1
 [Ge]>[GB] G>E F2 c2 | [Ad]>[Ac] [GB]>[FA] [EG]4 | [EF]>[EF] [EG]>[E=A] [FB]>[Fd] [Gf]>[Ge] | %3
w: Lesgter~Price * * * * *|||
 [Fd]2 [Ec]2 [DB]4 | E>D E>F D2 [DB]2 | [DA]>[DB] [Dc]>[Dd] [EB]4 | [Ge]>[Fd] [Af]>[Ge] d>c B>A | %7
w: ||||
 G2 [DF]2 (3EGA (3Bcd | [Ge]2 [Ge]2 [Ad]>[Ac] [FA]>[GB] | [DAc]2 [DAd]2 B4 | %10
w: |||
 [=Ec]2 [GB]2 [FA]>[GB] [FA]>[_EG] | [EF]2 [=A,E]2 [DB]4 | E>D E>F D2 [DB]2 | %13
w: |||
 [DA]>[DB] [Dc]>[Dd] [EB]4 | [Ge]>[Fd] [Af]>[Ge] [Bd]>[Ac] [CGB]>[CFA] | [EG]2 [A,DF]2 [G,E]4 |] %16
w: |||
V:2
 [E,B,]>[E,B,] [E,B,E]>[G,B,] [A,CE]2 [A,EF]2 | [F,B,]>[B,,B,] [B,,B,]>[B,,B,] [E,B,]4 | %2
 [C,=A,]>[C,A,] [C,A,]>[C,F,] [D,F,]>[D,B,] [E,B,]>[E,B,] | [F,B,]2 [F,=A,]2 [B,,B,]4 | %4
 [E,G,B,]>[E,F,B,] [E,G,B,]>[E,A,B,] [B,,A,B,]2 [B,,A,]2 | %5
 [B,,B,]>[B,,A,] [B,,A,]>[B,,A,] [E,G,]4 | %6
 [E,B,]>[E,B,] [E,B,]>[E,B,][K:treble] [A,B]>[A,A] [A,CG]>[A,CF] | %7
 [B,E]2[K:bass] [B,,A,]2 [E,G,]4 | [E,B,]2 [E,B,]2 [F,B,]>[F,B,] [B,,B,]>[B,,B,] | %9
 B,,2 B,,2 E,2 F2 | [C,G,]2 [=E,C]2 [F,C]>[F,C] [F,C]>[F,B,] | [C,=A,]2 [F,,F,]2 [B,,F,B,]4 | %12
 [E,G,B,]>[E,F,B,] [E,G,B,]>[E,A,B,] [B,,A,B,]2 [B,,A,]2 | %13
 [B,,B,]>[B,,A,] [B,,A,]>[B,,A,] [E,G,]4 | [E,B,]>[E,B,] [E,B,]>[E,B,] A,>A, A,>A, | %15
 B,2 B,,2 E,4 |] %16
V:3
 x8 | x8 | x8 | x8 | x8 | x8 | x8 | x8 | x8 | z4 [EG]2 z2 | x8 | x8 | x8 | x8 | x8 | x8 |] %16

